docs/images/info/2.svg

<svg width="71" height="89" viewBox="0 0 71 89" fill="none" xmlns="http://www.w3.org/2000/svg">
<path d="M69.8025 58.7813C69.02 55.9297 68.4217 52.9549 67.9921 49.8567C67.8541 48.8857 67.762 47.9146 67.7006 46.9435C67.5933 45.3713 67.5779 44.1999 67.5779 43.7221C67.5472 40.0382 67.5319 36.94 67.225 33.5798C67.087 32.0693 66.8875 30.4354 66.5807 28.0463C66.5807 28.0309 66.5807 28.0001 66.5807 27.9847C38.367 27.7843 32.6751 43.0593 32.445 43.7066L30.0824 42.9205L26.2469 41.6412C26.4617 40.9938 30.8495 29.7881 47.971 23.8538C55.8107 21.141 65.3073 20.6631 66.5193 20.509C66.6114 20.0004 66.7034 19.2451 66.7034 18.3357C66.7034 18.3357 66.7034 15.8078 65.6602 13.2491C64.5402 10.4284 54.66 0.532836 39.3795 0.00876978C37.9067 -0.0374714 19.5732 -0.361159 8.05142 14.0352C6.21039 16.3473 0.840736 23.6534 0.0889839 34.1347C-1.24576 52.6466 12.9608 65.3783 7.54514 72.1604C6.04163 74.0408 3.67898 74.6882 2.05274 74.9348C4.79894 82.4105 11.1658 87.5895 18.3151 88.1906C26.8759 88.8996 34.9151 82.8729 37.1089 76.1371C37.4925 74.9656 37.6459 73.8404 37.6612 72.7461C38.2903 72.9927 38.8733 73.2701 39.4256 73.5476C41.1745 74.5649 42.6627 75.3202 43.798 75.7363C46.8357 76.877 50.2416 77.8326 54.0157 78.6341C55.3197 78.9116 56.4704 79.0965 57.4523 79.1736C58.6643 79.2661 59.5541 78.8037 60.1218 77.7555C60.6127 76.8461 60.9962 75.8288 61.2417 74.719C61.3184 74.3953 61.4258 73.8867 61.5639 73.1622C61.6253 72.8386 61.84 72.5919 62.2083 72.4532C62.5304 72.3299 62.8833 72.1604 63.2668 71.9754C63.3742 71.9291 63.4816 71.8367 63.5737 71.6979C63.6044 71.6517 63.6197 71.6055 63.6197 71.5592C63.6044 71.1739 63.5583 70.881 63.4816 70.6498C63.2822 70.0333 63.1288 69.5246 63.006 69.1084C63.006 69.1084 63.006 69.0776 63.006 69.0622C63.006 68.9389 63.0981 68.831 63.2208 68.831C64.1106 68.7693 64.6016 68.7231 64.6936 68.7077C65.292 68.6152 65.9517 68.3686 65.7983 67.675C65.4914 66.3956 65.3227 65.887 65.3227 64.8543C65.3227 64.4535 65.4147 64.1606 65.5835 63.9448C65.9056 63.5133 66.4886 63.3899 66.7801 63.3437C69.2655 62.9275 70.5236 62.7272 70.7844 62.3881C71.2753 61.7869 70.3701 60.8775 69.7871 58.7813H69.8025Z" fill="#2B3B46"/>
</svg>

<svg xmlns="http://www.w3.org/2000/svg" width="71" height="89" fill="none"><path fill="#2B3B46" d="M69.803 58.781a70 70 0 0 1-1.81-8.924 38 38 0 0 1-.292-2.913 49 49 0 0 1-.123-3.222c-.03-3.684-.046-6.782-.353-10.142-.138-1.51-.337-3.145-.644-5.534v-.061c-28.214-.2-33.906 15.074-34.136 15.722l-2.363-.787-3.835-1.279c.215-.647 4.602-11.853 21.724-17.787 7.84-2.713 17.336-3.19 18.548-3.345a12.4 12.4 0 0 0 .184-2.173s0-2.528-1.043-5.087C64.54 10.43 54.66.533 39.38.01 37.907-.037 19.573-.361 8.05 14.035 6.21 16.347.84 23.653.088 34.135-1.247 52.647 12.96 65.378 7.544 72.16c-1.503 1.88-3.866 2.528-5.492 2.775 2.746 7.475 9.113 12.654 16.262 13.256 8.56.709 16.6-5.318 18.794-12.054a11.3 11.3 0 0 0 .552-3.39 21 21 0 0 1 1.765.8c1.749 1.018 3.237 1.773 4.372 2.19 3.038 1.14 6.444 2.096 10.218 2.897 1.304.278 2.454.463 3.436.54 1.212.092 2.102-.37 2.67-1.419.49-.909.874-1.926 1.12-3.036.076-.324.184-.832.322-1.557.061-.323.276-.57.644-.709a15 15 0 0 0 1.059-.478.73.73 0 0 0 .307-.277.25.25 0 0 0 .046-.139c-.016-.385-.062-.678-.138-.91a61 61 0 0 1-.476-1.54v-.047c0-.123.092-.231.215-.231.89-.062 1.38-.108 1.473-.123.598-.093 1.258-.34 1.104-1.033-.307-1.28-.475-1.788-.475-2.82 0-.401.092-.694.26-.91.323-.432.906-.555 1.197-.601 2.486-.416 3.744-.617 4.004-.956.491-.601-.414-1.51-.997-3.607z"/></svg>
